X: 42122
T: Washing Day
R: jig
M: 6/8
K: Gmajor
|:B,|B,3 B,3|C3 C3|B,3 B,2 G,|A,3 A,2 A,|
B,B,B, B,2 B,|C2 D E2 E|D2 C B,2 A,|G,3 G,2:|
|:F|G2 E D2 C|B,2 C D2 F|G2 E D2 B,|A,3 A,2 F|
G2 E D2 C|B,2 C D2 E|D2 C B,2 A,|G,3 G,2:|

